X: 41
T: Air by Mr Handel
%R: march
B: Stewart "A Select Collection of Airs, Jigs, Marches and Reels", ca.1784, p.19 #41
F: http://imslp.org/wiki/A_Select_Collection_of_Airs,_Jigs,_Marches_and_Reels_%28Various%29
Z: 2017 John Chambers <jc:trillian.mit.edu>
M: C|
L: 1/8
K: D
A2 |\
d2f2 Te2d2 | a4 f4 |\
b2a2 g2f2 | Tg2 f4 :: a2 |\
b2g2 e2fg | a2f2 d2ef |
g2f2 e2d2 | edef e2(fg) |\
a2fg a2gf | g2ef g2fe |\
fede Te3d | d6 :|
